X:1
T:Riseholme, 88.84
T:Henry John Gauntlett, 1871
T:Riseholme, 88.84
T:Public Domain
C:Henry John Gauntlett, 1871
Z:Public Domain
%%score ( 1 2 ) ( 3 4 )
L:1/8
M:4/4
K:Ab
V:1 treble 
V:2 treble 
V:3 bass 
V:4 bass 
V:1
 [CE]2 | [CE]2 [A,F]2 [CA]3 [CA] | [CA]2 [=DB]2 [EB]2 [EA]2 | [FB]2 [Fd]2 [Ed]2 [Ec]2 | %4
 [EB]3 [EB] [Ec]2 [=Ec]2 | [=Ec]2 [EG]2 [CA]2 [FA]2 | [FB]2 F2 [EG]2 [EA]2 | [FA]4 [DF]4 | [EA]6 |] %9
V:2
 x2 | x8 | x8 | x8 | x8 | x8 | x2 F2 x4 | x8 | x6 |] %9
V:3
 [A,,A,]2 | [A,,A,]2 [D,F,]2 [A,,E,]3 [F,A,] | [F,A,]2 [F,A,]2 [E,G,]2 [C,A,]2 | %3
 [D,A,]2 [B,,A,]2 [E,G,]2 A,2 | A,2 z E, [A,,A,]2 [C,G,]2 | [C,G,]2 [C,C]2 [F,A,]2 [E,C]2 | %6
 [=D,B,]2 [D,B,]2 [E,B,]2 [C,A,]2 | [D,A,]4 [D,A,]4 | [A,,C]6 |] %9
V:4
 x2 | x8 | x8 | x6 A,2 | F,3 G,2 x3 | x8 | x8 | x8 | x6 |] %9

